X: 4428
T: Bonnie Auld Music Lesson, The
R: jig
M: 6/8
K: Dminor
dfg a2g|fef a3|cef g2f|ede g3|
dfg a2g|fef a3|bag age|d3 d3:|
|:dfg a2a|gfg aga|dfg a2a|bfg a3|
dfg a2a|bag abC|d'Cb aga|ddd d3:|
|:aga b2b|agf edc|aga bab|CbC d'3|
d'Cb Cba|bag a3|bag age|ddc d3:|
dfg a2g|fef a3|cef g2f|ede g3|
dfg a2g|fef a3|bag age|
gfe fed|edc dac|cdd d3|

